icons/times-filled.svg

<svg xmlns="http://www.w3.org/2000/svg" width="24" height="24" viewBox="0 0 24 24">
    <path fill="#3A3A47" fill-rule="evenodd" d="M2 12c0 5.522 4.477 10 10 10s10-4.478 10-10c0-5.523-4.477-10-10-10S2 6.477 2 12zm6.757-4.657L12 10.586l3.243-3.243c.463-.48.934-.48 1.414 0 .48.48.48.951 0 1.414L13.414 12l3.243 3.243c.471.471.471.942 0 1.414-.472.471-.943.471-1.414 0L12 13.414l-3.243 3.243c-.46.482-.932.482-1.414 0-.482-.482-.482-.954 0-1.414L10.586 12 7.343 8.757c-.472-.47-.472-.942 0-1.414s.944-.472 1.414 0z"/>
</svg>

<svg width="24" height="24" viewBox="0 0 24 24" fill="none" xmlns="http://www.w3.org/2000/svg">
<path d="M2 12C2 17.522 6.477 22 12 22C17.523 22 22 17.522 22 12C22 6.477 17.523 2 12 2C6.477 2 2 6.477 2 12ZM8.757 7.343L12 10.586L15.243 7.343C15.706 6.863 16.177 6.863 16.657 7.343C17.137 7.823 17.137 8.294 16.657 8.757L13.414 12L16.657 15.243C17.128 15.714 17.128 16.185 16.657 16.657C16.185 17.128 15.714 17.128 15.243 16.657L12 13.414L8.757 16.657C8.297 17.139 7.825 17.139 7.343 16.657C6.861 16.175 6.861 15.703 7.343 15.243L10.586 12L7.343 8.757C6.871 8.287 6.871 7.815 7.343 7.343C7.815 6.871 8.287 6.871 8.757 7.343Z" fill="#3A3A47"/>
</svg>
